widgets/FullScreen/css/images/fullscreen-maximize.svg

<svg width="14" height="14" xmlns="http://www.w3.org/2000/svg"><path d="M0 11h3v3h2V9H0v2zm3-8H0v2h5V0H3v3zm6 11h2v-3h3V9H9v5zm2-11V0H9v5h5V3h-3z" fill-rule="evenodd"/></svg>

<?xml version="1.0" encoding="UTF-8" standalone="no"?>
<svg width="14px" height="14px" viewBox="0 0 14 14" version="1.1" xmlns="http://www.w3.org/2000/svg" xmlns:xlink="http://www.w3.org/1999/xlink" xmlns:sketch="http://www.bohemiancoding.com/sketch/ns">
    <!-- Generator: Sketch 3.4.3 (16044) - http://www.bohemiancoding.com/sketch -->
    <title>fullscreen-exit</title>
    <desc>Created with Sketch.</desc>
    <defs></defs>
    <g id="Page-1" stroke="none" stroke-width="1" fill="none" fill-rule="evenodd" sketch:type="MSPage">
        <g id="Core" sketch:type="MSLayerGroup" transform="translate(-257.000000, -257.000000)" fill="#000000">
            <g id="fullscreen-exit" transform="translate(257.000000, 257.000000)" sketch:type="MSShapeGroup">
                <path d="M0,11 L3,11 L3,14 L5,14 L5,9 L0,9 L0,11 L0,11 Z M3,3 L0,3 L0,5 L5,5 L5,0 L3,0 L3,3 L3,3 Z M9,14 L11,14 L11,11 L14,11 L14,9 L9,9 L9,14 L9,14 Z M11,3 L11,0 L9,0 L9,5 L14,5 L14,3 L11,3 L11,3 Z" id="Shape"></path>
            </g>
        </g>
    </g>
</svg>
